.local/share/icons/Gruvbox-Plus-Dark/mimetypes/scalable/application-drawing.svg

<svg width="256" height="256" viewBox="0 0 256 256" fill="none" xmlns="http://www.w3.org/2000/svg">
<g opacity="0.4" filter="url(#filter0_f)">
<path d="M55.0839 15.5636H155.608L216.009 75.7129L216.011 224.609C216.011 233.52 208.749 240.737 199.838 240.737H55.0838C46.1734 240.737 39 233.564 39 224.654V31.6474C39 22.737 46.1734 15.5636 55.0838 15.5636H55.0839Z" fill="#282828"/>
</g>
<path d="M55.0839 15H155.608L216.009 75.1493L216.011 224.045C216.011 232.956 208.749 240.174 199.838 240.174H55.0838C46.1734 240.174 39 233 39 224.09V31.0838C39 22.1734 46.1734 15 55.0838 15H55.0839Z" fill="#ebdbb2"/>
<path fill-rule="evenodd" clip-rule="evenodd" d="M155.609 22.9787H55.0839C50.58 22.9787 46.9787 26.5799 46.9787 31.0838V224.09C46.9787 228.594 50.5799 232.195 55.0838 232.195H199.838C204.371 232.195 208.032 228.521 208.032 224.046V75.1493L155.609 22.9787ZM155.608 15H55.0839C46.1735 15 39 22.1734 39 31.0838V224.09C39 233 46.1734 240.174 55.0838 240.174H199.838C208.749 240.174 216.011 232.956 216.011 224.045L216.009 75.1493L155.608 15Z" fill="url(#paint0_linear)"/>
<path d="M126.186 71C124.752 71 123.601 72.0667 123.601 73.4V79.2493C119.057 81.1013 115.848 85.2933 115.848 90.1947C115.848 96.812 121.642 102.191 128.772 102.191C135.9 102.191 141.696 96.812 141.696 90.1947C141.696 85.2933 138.485 81.1013 133.941 79.2467V73.3987C133.941 72.068 132.79 71 131.356 71H126.186ZM113.506 99.192L99.8529 133.383H84.7515C84.0102 133.341 83.2848 133.596 82.7595 134.084C82.2342 134.571 81.9595 135.244 82.0048 135.933C82.0942 137.253 83.3275 138.265 84.7515 138.181H123.601V145.379C123.601 146.712 124.752 147.779 126.186 147.779H131.356C132.79 147.779 133.941 146.712 133.941 145.379V138.181H172.713C173.644 138.191 174.509 137.74 174.985 136.991C175.213 136.628 175.333 136.209 175.333 135.781C175.333 135.354 175.213 134.934 174.985 134.572C174.509 133.824 173.641 133.372 172.713 133.383H157.686L144.04 99.192C141.066 103.561 136.088 106.412 130.546 106.916L141.534 133.383H133.941V126.184C133.941 124.853 132.79 123.784 131.356 123.784H126.186C124.752 123.784 123.601 124.853 123.601 126.184V133.383H116.008L126.993 106.916C121.454 106.409 116.477 103.56 113.505 99.192H113.506ZM96.1382 142.755L85.6355 168.999C85.4591 169.508 85.4591 170.062 85.6355 170.572L89.9995 184.068V188.567C89.9888 189.431 90.4742 190.235 91.2808 190.676C91.6821 190.889 92.1294 191 92.5835 191C93.0377 191 93.4849 190.889 93.8862 190.676C94.6928 190.235 95.1795 189.428 95.1688 188.567V184.068L112.213 142.755H96.1382ZM145.329 142.755L162.373 184.067V188.565C162.364 189.429 162.849 190.233 163.656 190.675C164.057 190.887 164.504 190.999 164.958 190.999C165.412 190.999 165.86 190.887 166.261 190.675C167.068 190.233 167.554 189.427 167.544 188.565V184.067L171.906 170.571C172.066 170.067 172.108 169.484 171.906 168.997L161.404 142.753H145.329V142.755Z" fill="url(#paint1_linear)"/>
<path opacity="0.25" d="M155.608 17V61.2306C155.608 70.141 162.867 77.1605 171.777 77.1605L216.009 77.1493V75.1493L155.608 17Z" fill="#282828"/>
<path d="M155.608 15V59.2306C155.608 68.141 162.867 75.1605 171.777 75.1605L216.009 75.1493L155.608 15Z" fill="url(#paint2_linear)"/>
<defs>
<filter id="filter0_f" x="23.8778" y="0.441412" width="207.255" height="255.418" filterUnits="userSpaceOnUse" color-interpolation-filters="sRGB">
<feFlood flood-opacity="0" result="BackgroundImageFix"/>
<feBlend mode="normal" in="SourceGraphic" in2="BackgroundImageFix" result="shape"/>
<feGaussianBlur stdDeviation="7.5611" result="effect1_foregroundBlur"/>
</filter>
<linearGradient id="paint0_linear" x1="39" y1="15" x2="39" y2="240.174" gradientUnits="userSpaceOnUse">
<stop offset="1e-07" stop-color="#fabd2f"/>
<stop offset="0.5" stop-color="#fe8019"/>
<stop offset="1" stop-color="#d65d0e"/>
</linearGradient>
<linearGradient id="paint1_linear" x1="82" y1="71" x2="82" y2="191" gradientUnits="userSpaceOnUse">
<stop offset="1e-07" stop-color="#fabd2f"/>
<stop offset="0.5" stop-color="#fe8019"/>
<stop offset="1" stop-color="#d65d0e"/>
</linearGradient>
<linearGradient id="paint2_linear" x1="155.608" y1="15" x2="155.608" y2="75.1605" gradientUnits="userSpaceOnUse">
<stop offset="1e-07" stop-color="#fabd2f"/>
<stop offset="0.5" stop-color="#fe8019"/>
<stop offset="1" stop-color="#d65d0e"/>
</linearGradient>
</defs>
</svg>

<svg width="256" height="256" fill="none" version="1.1" viewBox="0 0 256 256" xmlns="http://www.w3.org/2000/svg">
  <path d="m55.08 15h100.5l60.4 60.15 2e-3 148.9c0 8.911-7.262 16.13-16.17 16.13h-144.8c-8.91 0-16.08-7.174-16.08-16.08v-193c0-8.91 7.173-16.08 16.08-16.08h1e-4z" fill="#ebdbb2"/>
  <path d="m155.6 22.98h-100.5c-4.504 0-8.105 3.601-8.105 8.105v193c0 4.504 3.601 8.105 8.105 8.105h144.8c4.533 0 8.194-3.674 8.194-8.149v-148.9l-52.42-52.17zm-1e-3 -7.979h-100.5c-8.91 0-16.08 7.173-16.08 16.08v193c0 8.91 7.173 16.08 16.08 16.08h144.8c8.911 0 16.17-7.218 16.17-16.13l-2e-3 -148.9-60.4-60.15z" clip-rule="evenodd" fill="url(#paint0_linear)" fill-rule="evenodd"/>
  <path d="m126.2 71c-1.434 0-2.585 1.067-2.585 2.4v5.849c-4.544 1.852-7.753 6.044-7.753 10.95 0 6.617 5.794 12 12.92 12 7.128 0 12.92-5.379 12.92-12 0-4.901-3.211-9.093-7.755-10.95v-5.848c0-1.331-1.151-2.399-2.585-2.399h-5.17zm-12.68 28.19-13.65 34.19h-15.1c-0.7413-0.042-1.467 0.213-1.992 0.701-0.5253 0.487-0.8 1.16-0.7547 1.849 0.0894 1.32 1.323 2.332 2.747 2.248h38.85v7.198c0 1.333 1.151 2.4 2.585 2.4h5.17c1.434 0 2.585-1.067 2.585-2.4v-7.198h38.77c0.931 0.01 1.796-0.441 2.272-1.19 0.228-0.363 0.348-0.782 0.348-1.21 0-0.427-0.12-0.847-0.348-1.209-0.476-0.748-1.344-1.2-2.272-1.189h-15.03l-13.65-34.19c-2.974 4.369-7.952 7.22-13.49 7.724l10.99 26.47h-7.593v-7.199c0-1.331-1.151-2.4-2.585-2.4h-5.17c-1.434 0-2.585 1.069-2.585 2.4v7.199h-7.593l10.98-26.47c-5.539-0.507-10.52-3.356-13.49-7.724h1e-3zm-17.37 43.56-10.5 26.24c-0.1764 0.509-0.1764 1.063 0 1.573l4.364 13.5v4.499c-0.0107 0.864 0.4747 1.668 1.281 2.109 0.4013 0.213 0.8486 0.324 1.303 0.324 0.4542 0 0.9014-0.111 1.303-0.324 0.8066-0.441 1.293-1.248 1.283-2.109v-4.499l17.04-41.31h-16.07zm49.19 0 17.04 41.31v4.498c-9e-3 0.864 0.476 1.668 1.283 2.11 0.401 0.212 0.848 0.324 1.302 0.324s0.902-0.112 1.303-0.324c0.807-0.442 1.293-1.248 1.283-2.11v-4.498l4.362-13.5c0.16-0.504 0.202-1.087 0-1.574l-10.5-26.24h-16.08v2e-3z" fill="url(#paint1_linear)"/>
  <path d="m155.6 17v44.23c0 8.91 7.259 15.93 16.17 15.93l44.23-0.0112v-2l-60.4-58.15z" fill="#282828" opacity=".25"/>
  <path d="m155.6 15v44.23c0 8.91 7.259 15.93 16.17 15.93l44.23-0.0112-60.4-60.15z" fill="url(#paint2_linear)"/>
  <defs>
    <linearGradient id="paint0_linear" x1="39" x2="39" y1="15" y2="240.2" gradientUnits="userSpaceOnUse">
      <stop stop-color="#fabd2f" offset="1e-7"/>
      <stop stop-color="#fe8019" offset=".5"/>
      <stop stop-color="#d65d0e" offset="1"/>
    </linearGradient>
    <linearGradient id="paint1_linear" x1="82" x2="82" y1="71" y2="191" gradientUnits="userSpaceOnUse">
      <stop stop-color="#fabd2f" offset="1e-7"/>
      <stop stop-color="#fe8019" offset=".5"/>
      <stop stop-color="#d65d0e" offset="1"/>
    </linearGradient>
    <linearGradient id="paint2_linear" x1="155.6" x2="155.6" y1="15" y2="75.16" gradientUnits="userSpaceOnUse">
      <stop stop-color="#fabd2f" offset="1e-7"/>
      <stop stop-color="#fe8019" offset=".5"/>
      <stop stop-color="#d65d0e" offset="1"/>
    </linearGradient>
  </defs>
</svg>
